X:1
T:Angeli, Archangeli - Gabrieli
T:#
%%score [ 1 2 3 4 ]
L:1/8
Q:1/4=200
M:none
K:F
V:1 treble nm="Soprano" snm="S"
V:2 treble nm="Alto" snm="A"
V:3 treble-8 nm="Tenor" snm="T"
V:4 bass nm="Bass" snm="B"
V:1
"^Angeli, Archangeli" z16 | z16 | z4 F8 F4 | F4 G4 A4 A4 | %4
w: ||An- ge-|li, Ar- chan- ge-|
 F4 c4 A4"^Andrea Gabrieli\n(c. 1510-1586)" B4 |[M:4/2] c6 B2 A4 G4 | A8 G8 | z16 | z16 | %9
w: li, Thro- ni et|Do- mi- na- ti-|o- nes,|||
 z4 c8 c4 | B8 A8 | z4 A4 B4 c4 | (d12 c2 B2 | A2 B2 c8 =B4) | c8 z8 | z16 | c4 c4 A8- | %17
w: Prin- ci-|pa- tus|et Po- tes-|ta\- * *||tes,||Che- ru- bim|
 A4 F8 G4- | G4 F8 E4 | F8 A4 A4 | c8 B8 | z4 (A6 G2 F4) | D4 (A8 G4) | A4 A8 A4 | A8 G4 G4 | F16 | %26
w: * at- que|* Se- ra-|phim, Pa- tri-|ar- chae|et * *|Pro- phe\- *|tae, Sanc- ti|le- gis Doc-|to-|
 E16 | z8 z4 G4 | (F6 E2 D4) E4 | F4 A8 A4 | G8 E8 | G12 G4 | G16 | z16 | z8 z4 c4- | %35
w: res,|A-|pos\- * * to-|li, om- nes|Chris- ti|Mar- ty-|res,||sanc\-|
 c4 A4 F4 G4- | G4 (F8 E4) | F8 z8 | B12 A4 | G4 G8 ^F4 | G4 B4 B4 A4 | G8 A4 G4 | %42
w: * ti Con- fes\-|* so\- *|res,|Vir- gi-|nes Do- mi-|ni, A- na- cho-|ri- tae, A-|
 G2 F2 (F6 ED E4) | F8 z8 | G12 G4 | G8 A8 | G8 z8 | z16 | z16 | z4 F8 F4 | G4 B4 A4 G4 | B8 F8 | %52
w: na- cho- ri\- * * *|tae,|Sanc- ti-|que om-|nes|||in- ter-|ce- di- te pro|no- bis,|
 z8 z4 G4- | G4 G4 A4 c4 | =B4 c8 B4 | c4 G8 G4 | A4 c4 B4 A4 | c8 G4 G4 | (A6 GF E8) | D8 z4 G4- | %60
w: in\-|* ter- ce- di-|te pro no-|bis, in- ter-|ce- di- te pro|no- bis, pro|no\- * * *|bis, in\-|
 G4 G4 E8 | G4 D8 (G4- | G2 F2 F2 ED E4) (F4- | F4 E4)[Q:1/4=196] F8- |[Q:1/4=187] F16 | %65
w: * ter- ce-|di- te pro|* * * * * * no\-|* * bis||
[Q:1/4=175] F16 |[Q:1/4=170] F16 |] %67
w: ||
V:2
 C12 C4 | C4 C4 D4 D4 | C8 z4 F4 | D4 E4 F6 E2 | D4 C4 D8 |[M:4/2] C16- | C8 z4 C4 | %7
w: An- ge-|li, Ar- chan- ge-|li, Thro-|ni et Do- mi-|na- ti- o-|nes,|* Thro-|
 A,4 B,4 C6 B,2 | A,4 G,4 A,8 | G,8 z8 | z8 z4 F4- | F4 F4 _E8 | D4 B,4 D4 E4 | (F6 E2 D8) | %14
w: ni et Do- mi-|na- ti- o-|nes,|Prin\-|* ci- pa-|tus et Po- tes-|ta\- * *|
 C4 A,4 D8 | C4 C4 (D6 E2 | F4 E2 D2) C8 | F4 F4 D8 | C4 C4 C4 C4 | C8 z8 | E4 E4 G8 | F8 (D6 C2 | %22
w: tes, Vir- tu-|tes coe- lo\- *|* * * rum,|Che- ru- bim|at- que Se- ra-|phim,|Pa- tri- ar-|chae et *|
 B,4) A,4 B,8 | A,4 F8 F4 | F8 E4 E4 | (D2 C2 C8 =B,4) | C16- | C8 z8 | z4 C4 B,4 G,4 | A,4 F8 F4 | %30
w: * Pro- phe-|tae, Sanc- ti|le- gis Doc-|to\- * * *|res,||A- pos- to-|li, om- nes|
 D8 C8 | D12 D4 | E16 | z16 | z8 C8- | C8 B,8 | A,4 A,4 G,8 | F,8 D8- | D4 C4 B,8 | D8 D8 | %40
w: Chris- ti|Mar- ty-|res,||sanc\-|* ti|Con- fes- so-|res, Vir\-|* gi- nes|Do- mi-|
 D4 D4 D4 F4 | (F2 ED E4) F4 D4 | D4 C4 C8 | C8 z8 | E12 E4 | D8 F8 | E16- | E8 z8 | z8 z4 C4- | %49
w: ni, A- na- cho-|ri\- * * * tae, A-|na- cho- ri-|tae,|Sanc- ti-|que om-|nes||in\-|
 C4 C4 D4 F4 | E4 F8 E4 | F4 D8 D4 | D8 E8 | D8 F6 F2 | D4 E4 D4 D4 | (C2 D2 E2 F2 E6 D2) | %56
w: * ter- ce- di-|te pro no-|bis, sanc- ti-|que om-|nes in- ter-|ce- di- te pro|no\- * * * * *|
 (C2 B,2 A,2 G,2 F,4 F4- | F4 E2 D2 E8) | F8 z4 G,4- | G,4 G,4 A,4 C4 | B,4 G,4 C8- | %61
w: ||bis, in\-|* ter- ce- di-|te pro no\-|
 C4 B,4 z4 G,4 | D8 G,4 A,4 | C8 A,4 A,4- | A,4 A,4 B,4 D4 | C4 B,4 D8 | C16 |] %67
w: * bis, pro|no- bis, pro|no- bis, in\-|* ter- ce- di-|te pro no-|bis.|
V:3
 z8 F8- | F4 F4 F4 G4 | A4 A4 F8 | z16 | z4 A4 F4 G4 |[M:4/2][K:treble-8] A6 G2 F4 E4- | E4 F8 E4 | %7
w: An\-|* ge- li, Ar-|chan- ge- li,||Thro- ni et|Do- mi- na- ti\-|* o- nes,|
 F4 D4 E4 F4- | F4 E4 C4 D4 | (E2 F2 G6 F2 F4- | F4 E4) F8- | F8 z8 | z16 | F8 G8 | A4 c8 (B4- | %15
w: Thro- ni et Do\-|* mi- na- ti-|o\- * * * *|* * nes,|||Vir- tu-|tes coe- lo\-|
 B2 A2 A8 G4) | A4 c4 c4 A4- | A4 B8 B4 | (A6 GF G4) G4 | (F2 G2 A2 B2 c8) | c4 c4 d8 | d8 z8 | %22
w: |rum, Che- ru- bim|* at- que|Se\- * * * ra-|phim, * * * *|Pa- tri- ar-|chae,|
 z16 | z4 d8 d4 | c8 c4 G4 | (A12 G2 F2) | G8 z8 | z4 A4 B4 G4 | A8 z8 | c12 c4 | B8 A4 (c4- | %31
w: |Sanc- ti|le- gis Doc-|to\- * *|res,|A- pos- to-|li,|om- nes|Chris- ti Mar\-|
 c4 =B2 A2 B4) B4 | c4 G8 E4 | F4 G8 F4- | (F4 E4) F4 A4- | A4 F4 D4 E4 | F8 C8 | z4 F8 E4 | D16 | %39
w: * * * * ty-|res, sanc- ti|Con- fes- so\-|* * res, sanc\-|* ti Con- fes-|so- res,|Vir- gi-|nes|
 B8 A8 | G4 G4 B4 F4 | c8 F4 B4 | B4 A4 G8 | A8 z8 | c12 c4 | =B8 c8 | c4 G8 G4 | A4 c4 B4 A4 | %48
w: Do- mi-|ni, A- na- cho-|ri- tae, A-|na- cho- ri-|tae,|Sanc- ti-|que om-|nes in- ter-|ce- di- te pro|
 c8 G8 | A6 A2 B4 d4 | c4 B4 c8 | B4 F8 F4 | G4 B4 A4 G4 | B8 F8 | G12 G4 | A4 c4 G8 | z8 z4 F4 | %57
w: no- bis,|in- ter- ce- di-|te pro no-|bis, in- ter-|ce- di- te pro|no- bis,|in- ter-|ce- di- te|pro|
 G8 G4 c4- | c4 c4 c8 | d8 c8 | z8 z4 G4- | G4 G4 A4 c4 | B4 A4 c8 | G8 z4 c4- | c4 c4 d4 B4 | %65
w: no- bis, sanc\-|* ti- que|om- nes|in\-|* ter- ce- di-|te pro no-|bis, in\-|* ter- ce- di-|
 A4 d4 B8 | A16 |] %67
w: te pro no-|bis.|
V:4
 z16 | z16 | z16 | z16 | z16 |[M:4/2] z8 z4 C,4- | C,4 C,4 C,4 C,4 | D,4 D,4 C,8 | C,8 A,,4 F,,4 | %9
w: |||||An\-|* ge- li, Ar-|chan- ge- li,|Thro- ni et|
 C,6 B,,2 A,,4 F,,4 | G,,8 F,,8- | F,,8 z8 | z16 | z16 | F,,8 G,,8 | A,,4 C,4 B,,8 | A,,8 F,4 F,4 | %17
w: Do- mi- na- ti-|o- nes,||||Vir- tu-|tes coe- lo-|rum, Che- ru-|
 D,8 B,,4 B,,4 | C,8 C,8 | F,,8 F,4 F,4 | A,8 G,8 | z16 | z16 | z4 D,8 D,4 | F,8 C,8 | F,8 D,8 | %26
w: \-bim at- que|Se- ra-|phim, Pa- tri-|ar- chae,|||Sanc- ti|le- gis|Doc- to-|
 C,8 z4 C,4 | (F,6 E,2 D,4) E,4 | F,8 z8 | F,12 F,4 | G,8 A,8 | G,12 G,4 | C,8 C,8 | %33
w: res, A-|pos\- * * to-|li,|om- nes|Chris- ti|Mar- ty-|res, sanc-|
 B,,8 A,,4 A,,4 | G,,8 F,,8- | F,,8 z8 | z16 | z8 B,,8- | B,,4 A,,4 G,,8 | G,,8 D,8 | G,,8 z8 | %41
w: ti Con- fes-|so- res,|||Vir\-|* gi- nes|Do- mi-|ni,|
 z8 z4 G,,4 | B,,4 F,,4 C,8 | F,,8 z8 | C,12 C,4 | G,8 F,8 | C,8 z4 C,4- | C,4 C,4 D,4 F,4 | %48
w: A-|na- cho- ri-|tae,|Sanc- ti-|que om-|nes in\-|* ter- ce- di-|
 E,4 F,8 E,4 | F,8 z8 | z16 | B,,12 B,,4 | B,,8 C,8 | B,,8 z8 | z16 | z4 C,8 C,4 | C,8 D,8 | C,16 | %58
w: te pro no-|bis,||sanc- ti-|que om-|nes||sanc- ti|que om-|nes|
 F,,6 F,,2 A,,4 C,4 | B,,4 B,,4 F,4 C,4 | z4 C,8 C,4 | E,4 G,4 F,4 E,4 | D,8 C,8- | C,8 F,,8 | %64
w: in- ter- ce- di-|te pro no- bis,|in- ter-|ce- di- te pro|no- bis,|* in-|
 F,,8 B,,4 B,,4 | F,4 B,,4 B,,8 | F,,16 |] %67
w: ter- ce- di-|te pro no-|bis.|

